X: 1
T: Benton's
M: 6/8
L: 1/8
R: jig
K: Amix
~a3 aba|~g3 gag|~e3 de=f|edB A2B|
BAF EFA|~=c3 BAG|AGE DEG|1A3 Ace:|2A3 AGF||
~G3 DGG|BGG dGG|eGG dGG|EFG ABA|
~G3 DGG|EGG DGG|EFG BAG|1A3 ABA:|2AB/c/d efg||
